austria/municipalities/20722.svg

<svg xmlns="http://www.w3.org/2000/svg" width="850" height="850" style="shape-rendering:geometricPrecision;text-rendering:geometricPrecision;image-rendering:optimizeQuality;fill-rule:evenodd;clip-rule:evenodd"><path style="opacity:1" fill="#c8c7c7" d="M837.5 17.5v-6h-826v4c-.951-1.419-1.284-3.085-1-5h828c.302 2.56-.032 4.893-1 7z"/><path style="opacity:1" fill="#272324" d="M837.5 17.5a103840.317 103840.317 0 0 1-31.5 454c-6.952 107.384-49.452 197.551-127.5 270.5-99.944 84.57-214.278 113.236-343 86-58.672-14.166-110.672-40.666-156-79.5-.473-1.406-1.473-2.073-3-2-34.723-29.036-62.723-63.369-84-103 .215-1.679-.452-2.679-2-3-23.556-43.836-38.389-90.503-44.5-140a46084.756 46084.756 0 0 1-34.5-485v-4h826v6z"/><path style="opacity:1" fill="#752228" d="M30.5 29.5c131.333-.667 262.833-1 394.5-1l394.5 1c-.124.607-.457.94-1 1-262.499-1-525.166-1.333-788-1z"/><path style="opacity:1" fill="#c82530" d="M30.5 29.5c262.834-.333 525.501 0 788 1a312190.11 312190.11 0 0 1-677 653c-28.178-34.783-49.012-73.783-62.5-117-11.073-36.506-17.406-73.839-19-112a111291.241 111291.241 0 0 1-29.5-425z"/><path style="opacity:1" fill="#fefefe" d="M818.5 30.5a82944.505 82944.505 0 0 1-32.5 460C768.859 628.06 698.359 727.227 574.5 788c-109.904 46.725-217.904 42.725-324-12-42.699-23.347-79.033-54.18-109-92.5a312190.11 312190.11 0 0 0 677-653z"/><path style="opacity:1" fill="#2b2526" d="M224.5 98.5c8.085-.401 16.085.099 24 1.5l6 3a148.31 148.31 0 0 1 14 15c10.099.049 20.099.716 30 2l2.5 2.5a483.123 483.123 0 0 0 1.5 31 214.607 214.607 0 0 0 28 19.5 860.85 860.85 0 0 1 50 24c19.399 12.983 27.233 31.15 23.5 54.5a117.5 117.5 0 0 1-7.5 19c5.181 8.033 9.014 16.699 11.5 26 2.986 14.154-.514 26.32-10.5 36.5-3.287 1.304-6.287 2.97-9 5a131.698 131.698 0 0 1 .5 27.5c-4.771 19.795-17.271 28.962-37.5 27.5a157.123 157.123 0 0 1-15-5 11.333 11.333 0 0 1 1.5 3.5c.87 10.385.536 20.718-1 31-5.036 20.1-17.869 29.267-38.5 27.5-9.371-2.383-17.538-6.883-24.5-13.5-6.067 25.727-22.233 36.894-48.5 33.5-16.861-4.867-26.694-16.034-29.5-33.5-10.73 10.466-23.563 14.966-38.5 13.5-13.449-4.449-21.615-13.616-24.5-27.5-3.076-11.28-3.243-22.614-.5-34-33.374 10.782-51.041-1.551-53-37a100.707 100.707 0 0 1 2-14c-10.567-3.733-17.067-11.067-19.5-22-2.648-16.577 1.185-31.411 11.5-44.5-10.83-20.34-10.663-40.507.5-60.5 5.677-7.018 12.51-12.518 20.5-16.5a1378.685 1378.685 0 0 1 45-21 214.607 214.607 0 0 0 28-19.5 483.123 483.123 0 0 0 1.5-31l3.5-3.5 29-1a148.31 148.31 0 0 1 14-15c2.824-2.079 5.824-3.579 9-4.5z"/><path style="opacity:1" fill="#fdfdfd" d="M222.5 105.5c7.674-.166 15.341 0 23 .5a22.981 22.981 0 0 1 5 2l26.5 30.5c14.385 14.728 30.218 27.561 47.5 38.5a2526.518 2526.518 0 0 1 52 25c20.347 14.043 26.514 32.877 18.5 56.5l-4 8c-.718.951-1.551 1.117-2.5.5l-111-111c-2.625-.723-4.292.277-5 3A10506.685 10506.685 0 0 0 394 281.5c10.094 13.322 11.094 27.322 3 42-3.331 4.75-7.831 6.916-13.5 6.5a6.978 6.978 0 0 1-3.5-2.5l-113-163c-2.782-1.511-4.615-.678-5.5 2.5A13734.016 13734.016 0 0 0 376 330.5c7.132 9.871 9.465 20.871 7 33-5.707 20.105-18.541 26.938-38.5 20.5-6.095-2.291-10.929-6.124-14.5-11.5a36645.711 36645.711 0 0 1-72-203c-2.382-1.366-4.548-1.033-6.5 1a18413.037 18413.037 0 0 1 80.5 227 121.19 121.19 0 0 1 0 22c-5.44 19.974-18.273 27.474-38.5 22.5-11.835-4.163-19.002-12.33-21.5-24.5-8.233-82.001-16.4-164.001-24.5-246h-6a112900.57 112900.57 0 0 0 25 258.5c-1.944 26.273-15.944 37.273-42 33-14.541-6.386-21.541-17.553-21-33.5l25-258h-6a153252.178 153252.178 0 0 0-24.5 246c-1.124 6.415-3.957 11.915-8.5 16.5-4.717 4.027-10.051 7.027-16 9-20.962 2.722-33.128-6.444-36.5-27.5a30.485 30.485 0 0 1 0-11 143.264 143.264 0 0 1 8-29 24997.18 24997.18 0 0 1 73.5-205c-2.054-1.756-4.221-2.09-6.5-1a36514.747 36514.747 0 0 0-72 203c-6.982 9.158-16.315 13.824-28 14-14.467-1.464-22.8-9.464-25-24a68.762 68.762 0 0 1 1-22 12131.066 12131.066 0 0 1 120-172c.699-2.822-.468-4.488-3.5-5A30209.08 30209.08 0 0 0 88.5 329c-2.53 1.422-5.197 1.755-8 1-9.072-6.174-13.406-14.841-13-26 .31-7.929 2.81-15.096 7.5-21.5 41.207-40.873 82.04-82.04 122.5-123.5-.708-2.723-2.375-3.723-5-3a17648.926 17648.926 0 0 1-112 111.5c-11.393-17.236-11.893-34.902-1.5-53 5.498-6.49 11.998-11.657 19.5-15.5a1385.139 1385.139 0 0 1 45-21c27.568-16.229 50.734-37.396 69.5-63.5a118.86 118.86 0 0 1 9.5-9z"/><path style="opacity:1" fill="#585556" d="M294.5 125.5c-6.854-.324-13.521.009-20 1-.543-.06-.876-.393-1-1 7.156-1.319 14.156-1.319 21 0z"/><path style="opacity:1" fill="#f3f3f3" d="M174.5 125.5c7.008-.166 14.008 0 21 .5a193.536 193.536 0 0 1-20 20.5 111.148 111.148 0 0 1-1-21z"/><path style="opacity:1" fill="#fcfcfc" d="M274.5 126.5c6.479-.991 13.146-1.324 20-1 .166 7.008 0 14.008-.5 21a547.318 547.318 0 0 1-19.5-20z"/><path style="opacity:1" fill="#272021" d="M558.5 408.5a237.67 237.67 0 0 1 53 4.5c16.417 3.364 29.751 11.531 40 24.5a288.015 288.015 0 0 0 25.5-24 667.385 667.385 0 0 1-14.5 32c13.538 4.691 24.371 13.024 32.5 25 20.734 32.341 30.067 67.675 28 106-1.874 8.476-5.374 16.143-10.5 23a973.433 973.433 0 0 0 31 17.5 443.646 443.646 0 0 1-34.5-4.5c-1.126 17.247-7.46 32.247-19 45-22.948 25.284-50.781 42.784-83.5 52.5a121.19 121.19 0 0 1-22 0 19.06 19.06 0 0 1-7-2.5 364.113 364.113 0 0 0-6.5 34 259.999 259.999 0 0 1-6.5-33c-11.614 2.406-23.281 2.573-35 .5-32.054-11.398-59.221-29.898-81.5-55.5-6.422-8.432-11.089-17.765-14-28a84.902 84.902 0 0 1-.5-13 4885.789 4885.789 0 0 0-36 4.5 351.791 351.791 0 0 0 31-17.5c-10.206-15.86-13.706-33.193-10.5-52 3.956-28.208 13.622-54.208 29-78 7.994-11.233 18.494-18.9 31.5-23a1290.27 1290.27 0 0 0-14.5-33 288.015 288.015 0 0 0 25.5 24c11.402-13.876 26.069-22.376 44-25.5a448.961 448.961 0 0 1 25-3.5z"/><path style="opacity:1" fill="#c0252f" d="M560.5 415.5a185.11 185.11 0 0 1 47 5.5c-16.946 5.324-34.279 6.991-52 5-7.307-.659-14.307-2.326-21-5a234.752 234.752 0 0 1 26-5.5z"/><path style="opacity:1" fill="#c7252f" d="M518.5 427.5a67.69 67.69 0 0 1 17 1.5 253.109 253.109 0 0 1 24 8 50.834 50.834 0 0 0 18 1c10.681-3.343 21.347-6.677 32-10 15.11-2.361 26.276 3.139 33.5 16.5a25.238 25.238 0 0 1 0 10 684.937 684.937 0 0 1-52.5 72.5c-8.189 3.643-13.022.81-14.5-8.5l-1-58c-2.178-3.565-4.844-3.899-8-1l-1 58c-.836 8.525-5.336 12.025-13.5 10.5a696.6 696.6 0 0 1-53.5-71.5c-2.838-9.182-.338-16.682 7.5-22.5a106.037 106.037 0 0 1 12-6.5zM476.5 456.5c6.43-.896 12.264.437 17.5 4a1021.288 1021.288 0 0 1 50 70c.667 3 .667 6 0 9a6.978 6.978 0 0 1-3.5 2.5 42.479 42.479 0 0 1-13 0l-47-15a16.242 16.242 0 0 0-8 0c-1.505 3.883-.171 6.55 4 8a669.166 669.166 0 0 1 55 19c7.26 7.039 6.26 12.706-3 17a1060.888 1060.888 0 0 1-78 25c-3 .667-6 .667-9 0-6.877-3.88-11.043-9.713-12.5-17.5a49.226 49.226 0 0 1 0-14c4.392-10.387 10.392-19.72 18-28 6.714-7.931 9.881-17.098 9.5-27.5-1.767-11.293-1.267-22.459 1.5-33.5 3.687-8.853 9.854-15.186 18.5-19zM653.5 456.5c10.463-.851 18.963 2.815 25.5 11a35.145 35.145 0 0 1 5 10 537.898 537.898 0 0 1 2 44 50.548 50.548 0 0 0 6 12 113.408 113.408 0 0 1 20 30c1.76 9.701.094 18.701-5 27-6.412 6.236-13.912 7.736-22.5 4.5a638.132 638.132 0 0 1-76-26c-3.917-2.834-4.751-6.334-2.5-10.5a34.706 34.706 0 0 1 7.5-6.5 2707.59 2707.59 0 0 0 55.5-19.5c1.164-4.638-.67-6.638-5.5-6a1618.248 1618.248 0 0 0-53 16.5c-5.169 1.295-9.669.128-13.5-3.5a16.242 16.242 0 0 1 0-8 845.065 845.065 0 0 1 45-64c3.07-4.573 6.904-8.239 11.5-11z"/><path style="opacity:1" fill="#6c2227" d="M693.5 484.5c-.951 1.419-1.284 3.085-1 5-1.129-2.128-1.296-4.461-.5-7 .717.544 1.217 1.211 1.5 2z"/><path style="opacity:1" fill="#c2252f" d="M693.5 484.5c9.525 14.725 16.025 30.725 19.5 48a124.584 124.584 0 0 1 1 19c-13.03-18.589-20.197-39.256-21.5-62-.284-1.915.049-3.581 1-5zM448.5 482.5c.458 25.475-6.709 48.808-21.5 70-.292-12.253 1.375-24.253 5-36a266.89 266.89 0 0 1 16.5-34z"/><path style="opacity:1" fill="#bf252f" d="M568.5 541.5c6.986-.169 8.653 2.664 5 8.5-7.084.475-8.751-2.358-5-8.5z"/><path style="opacity:1" fill="#c0252f" d="M555.5 548.5c6.303.424 7.969 3.257 5 8.5-7.263.821-8.929-2.012-5-8.5z"/><path style="opacity:1" fill="#b6252e" d="M581.5 548.5c7.321.819 8.654 3.986 4 9.5-7.425-.516-8.758-3.682-4-9.5z"/><path style="opacity:1" fill="#c0252f" d="M567.5 556.5c7.216-.812 9.216 1.855 6 8-6.707 1.272-8.707-1.395-6-8z"/><path style="opacity:1" fill="#be252f" d="M555.5 563.5c6.994-.085 8.661 2.748 5 8.5-7.263.821-8.929-2.012-5-8.5z"/><path style="opacity:1" fill="#ba252e" d="M581.5 563.5c6.303.424 7.969 3.257 5 8.5-8.292.89-9.958-1.943-5-8.5z"/><path style="opacity:1" fill="#bf252f" d="M567.5 571.5c8.043-.497 9.71 2.336 5 8.5-2.201.825-4.034.325-5.5-1.5-.703-2.429-.537-4.762.5-7z"/><path style="opacity:1" fill="#c7252f" d="M528.5 577.5c15.053-1.594 18.886 4.406 11.5 18a724.3 724.3 0 0 0-32.5 46c2.407 4.987 5.573 5.32 9.5 1a3348.894 3348.894 0 0 1 32.5-44.5c2.895-2.199 6.061-3.699 9.5-4.5 4.598.598 7.265 3.265 8 8 .667 29 .667 58 0 87-2.052 6.719-6.552 10.552-13.5 11.5-12.564 2.632-23.064-.868-31.5-10.5a182.371 182.371 0 0 0-23.5-30.5 281.485 281.485 0 0 0-35-12c-15.223-6.939-21.723-18.772-19.5-35.5 1.061-3.062 2.894-5.562 5.5-7.5a998.955 998.955 0 0 1 79-26.5zM601.5 577.5c8.577.06 16.91 1.56 25 4.5a1743.8 1743.8 0 0 1 63 21c5.963 3.426 8.63 8.592 8 15.5-.821 15.13-8.487 24.964-23 29.5a197.97 197.97 0 0 0-30 10 45.255 45.255 0 0 0-8.5 7.5 156.817 156.817 0 0 1-21.5 28.5c-11.049 8.507-22.716 9.507-35 3-2.456-2.408-4.289-5.241-5.5-8.5-.667-29-.667-58 0-87 .692-4.692 3.358-7.358 8-8a24.979 24.979 0 0 1 9.5 4.5 3348.894 3348.894 0 0 1 32.5 44.5c3.835 4.259 7.001 3.926 9.5-1a724.3 724.3 0 0 0-32.5-46c-3.484-5.047-4.151-10.38-2-16 .995-.566 1.828-1.233 2.5-2z"/><path style="opacity:1" fill="#898787" d="M90.5 640.5c1.548.321 2.215 1.321 2 3-.901-.79-1.568-1.79-2-3z"/><path style="opacity:1" fill="#c3252f" d="M459.5 652.5c23.887 8.28 43.553 22.446 59 42.5-11.559-3.945-22.559-9.278-33-16a195.076 195.076 0 0 1-26-26.5z"/><path style="opacity:1" fill="#c2252f" d="M681.5 651.5c1.025.397 1.192 1.063.5 2-15.568 20.18-35.401 34.013-59.5 41.5 15.886-19.732 35.553-34.232 59-43.5z"/><path style="opacity:1" fill="#929091" d="M176.5 746.5c1.527-.073 2.527.594 3 2-1.527.073-2.527-.594-3-2z"/></svg>

<?xml version="1.0" encoding="UTF-8"?>
<!DOCTYPE svg PUBLIC "-//W3C//DTD SVG 1.1//EN" "http://www.w3.org/Graphics/SVG/1.1/DTD/svg11.dtd">
<svg xmlns="http://www.w3.org/2000/svg" version="1.1" width="850px" height="850px" style="shape-rendering:geometricPrecision; text-rendering:geometricPrecision; image-rendering:optimizeQuality; fill-rule:evenodd; clip-rule:evenodd" xmlns:xlink="http://www.w3.org/1999/xlink">
<g><path style="opacity:1" fill="#c8c7c7" d="M 837.5,17.5 C 837.5,15.5 837.5,13.5 837.5,11.5C 562.167,11.5 286.833,11.5 11.5,11.5C 11.5,12.8333 11.5,14.1667 11.5,15.5C 10.5489,14.0813 10.2155,12.4147 10.5,10.5C 286.5,10.5 562.5,10.5 838.5,10.5C 838.802,13.0593 838.468,15.3926 837.5,17.5 Z"/></g>
<g><path style="opacity:1" fill="#272324" d="M 837.5,17.5 C 827.332,168.851 816.832,320.184 806,471.5C 799.048,578.884 756.548,669.051 678.5,742C 578.556,826.57 464.222,855.236 335.5,828C 276.828,813.834 224.828,787.334 179.5,748.5C 179.027,747.094 178.027,746.427 176.5,746.5C 141.777,717.464 113.777,683.131 92.5,643.5C 92.7148,641.821 92.0481,640.821 90.5,640.5C 66.9443,596.664 52.111,549.997 46,500.5C 33.6471,338.893 22.1471,177.227 11.5,15.5C 11.5,14.1667 11.5,12.8333 11.5,11.5C 286.833,11.5 562.167,11.5 837.5,11.5C 837.5,13.5 837.5,15.5 837.5,17.5 Z"/></g>
<g><path style="opacity:1" fill="#752228" d="M 30.5,29.5 C 161.833,28.8333 293.333,28.5 425,28.5C 556.5,28.8333 688,29.1667 819.5,29.5C 819.376,30.1067 819.043,30.44 818.5,30.5C 556.001,29.5002 293.334,29.1669 30.5,29.5 Z"/></g>
<g><path style="opacity:1" fill="#c82530" d="M 30.5,29.5 C 293.334,29.1669 556.001,29.5002 818.5,30.5C 593.137,248.53 367.47,466.197 141.5,683.5C 113.322,648.717 92.4884,609.717 79,566.5C 67.9271,529.994 61.5938,492.661 60,454.5C 49.8952,312.848 40.0619,171.181 30.5,29.5 Z"/></g>
<g><path style="opacity:1" fill="#fefefe" d="M 818.5,30.5 C 808.093,183.86 797.26,337.193 786,490.5C 768.859,628.06 698.359,727.227 574.5,788C 464.596,834.725 356.596,830.725 250.5,776C 207.801,752.653 171.467,721.82 141.5,683.5C 367.47,466.197 593.137,248.53 818.5,30.5 Z"/></g>
<g><path style="opacity:1" fill="#2b2526" d="M 224.5,98.5 C 232.585,98.0989 240.585,98.5989 248.5,100C 250.5,101 252.5,102 254.5,103C 259.534,107.699 264.2,112.699 268.5,118C 278.599,118.049 288.599,118.716 298.5,120C 299.333,120.833 300.167,121.667 301,122.5C 301.168,132.849 301.668,143.183 302.5,153.5C 311.31,160.739 320.643,167.239 330.5,173C 347.441,180.471 364.108,188.471 380.5,197C 399.899,209.983 407.733,228.15 404,251.5C 402.039,258.083 399.539,264.416 396.5,270.5C 401.681,278.533 405.514,287.199 408,296.5C 410.986,310.654 407.486,322.82 397.5,333C 394.213,334.304 391.213,335.97 388.5,338C 389.626,347.131 389.793,356.298 389,365.5C 384.229,385.295 371.729,394.462 351.5,393C 346.297,391.545 341.297,389.879 336.5,388C 337.191,389.067 337.691,390.234 338,391.5C 338.87,401.885 338.536,412.218 337,422.5C 331.964,442.6 319.131,451.767 298.5,450C 289.129,447.617 280.962,443.117 274,436.5C 267.933,462.227 251.767,473.394 225.5,470C 208.639,465.133 198.806,453.966 196,436.5C 185.27,446.966 172.437,451.466 157.5,450C 144.051,445.551 135.885,436.384 133,422.5C 129.924,411.22 129.757,399.886 132.5,388.5C 99.1255,399.282 81.4589,386.949 79.5,351.5C 79.8411,346.769 80.5078,342.102 81.5,337.5C 70.9329,333.767 64.4329,326.433 62,315.5C 59.3522,298.923 63.1855,284.089 73.5,271C 62.67,250.66 62.8367,230.493 74,210.5C 79.6773,203.482 86.5106,197.982 94.5,194C 109.38,186.727 124.38,179.727 139.5,173C 149.357,167.239 158.69,160.739 167.5,153.5C 168.332,143.183 168.832,132.849 169,122.5C 170.167,121.333 171.333,120.167 172.5,119C 182.167,118.667 191.833,118.333 201.5,118C 205.8,112.699 210.466,107.699 215.5,103C 218.324,100.921 221.324,99.4212 224.5,98.5 Z"/></g>
<g><path style="opacity:1" fill="#fdfdfd" d="M 222.5,105.5 C 230.174,105.334 237.841,105.5 245.5,106C 247.246,106.471 248.913,107.138 250.5,108C 259.333,118.167 268.167,128.333 277,138.5C 291.385,153.228 307.218,166.061 324.5,177C 341.954,185.148 359.288,193.481 376.5,202C 396.847,216.043 403.014,234.877 395,258.5C 393.667,261.167 392.333,263.833 391,266.5C 390.282,267.451 389.449,267.617 388.5,267C 351.5,230 314.5,193 277.5,156C 274.875,155.277 273.208,156.277 272.5,159C 312.626,200.127 353.126,240.96 394,281.5C 404.094,294.822 405.094,308.822 397,323.5C 393.669,328.25 389.169,330.416 383.5,330C 382.069,329.535 380.903,328.701 380,327.5C 342.333,273.167 304.667,218.833 267,164.5C 264.218,162.989 262.385,163.822 261.5,167C 299.263,221.766 337.429,276.266 376,330.5C 383.132,340.371 385.465,351.371 383,363.5C 377.293,383.605 364.459,390.438 344.5,384C 338.405,381.709 333.571,377.876 330,372.5C 305.799,304.898 281.799,237.231 258,169.5C 255.618,168.134 253.452,168.467 251.5,170.5C 278.847,246.044 305.68,321.71 332,397.5C 332.667,404.833 332.667,412.167 332,419.5C 326.56,439.474 313.727,446.974 293.5,442C 281.665,437.837 274.498,429.67 272,417.5C 263.767,335.499 255.6,253.499 247.5,171.5C 245.5,171.5 243.5,171.5 241.5,171.5C 249.734,257.672 258.067,343.839 266.5,430C 264.556,456.273 250.556,467.273 224.5,463C 209.959,456.614 202.959,445.447 203.5,429.5C 211.834,343.496 220.167,257.496 228.5,171.5C 226.5,171.5 224.5,171.5 222.5,171.5C 214.268,253.487 206.101,335.487 198,417.5C 196.876,423.915 194.043,429.415 189.5,434C 184.783,438.027 179.449,441.027 173.5,443C 152.538,445.722 140.372,436.556 137,415.5C 136.333,411.833 136.333,408.167 137,404.5C 138.648,394.555 141.315,384.889 145,375.5C 169.201,307.064 193.701,238.73 218.5,170.5C 216.446,168.744 214.279,168.41 212,169.5C 187.806,237.08 163.806,304.747 140,372.5C 133.018,381.658 123.685,386.324 112,386.5C 97.5332,385.036 89.1999,377.036 87,362.5C 86.1519,355.101 86.4853,347.767 88,340.5C 127.507,282.817 167.507,225.484 208,168.5C 208.699,165.678 207.532,164.012 204.5,163.5C 165.671,218.505 127.005,273.672 88.5,329C 85.9699,330.422 83.3033,330.755 80.5,330C 71.4276,323.826 67.0943,315.159 67.5,304C 67.8098,296.071 70.3098,288.904 75,282.5C 116.207,241.627 157.04,200.46 197.5,159C 196.792,156.277 195.125,155.277 192.5,156C 155.32,193.347 117.986,230.514 80.5,267.5C 69.1068,250.264 68.6068,232.598 79,214.5C 84.4984,208.01 90.9984,202.843 98.5,199C 113.349,191.743 128.349,184.743 143.5,178C 171.068,161.771 194.234,140.604 213,114.5C 216.062,111.268 219.229,108.268 222.5,105.5 Z"/></g>
<g><path style="opacity:1" fill="#585556" d="M 294.5,125.5 C 287.646,125.176 280.979,125.509 274.5,126.5C 273.957,126.44 273.624,126.107 273.5,125.5C 280.656,124.181 287.656,124.181 294.5,125.5 Z"/></g>
<g><path style="opacity:1" fill="#f3f3f3" d="M 174.5,125.5 C 181.508,125.334 188.508,125.5 195.5,126C 189.35,133.317 182.683,140.15 175.5,146.5C 174.503,139.532 174.17,132.532 174.5,125.5 Z"/></g>
<g><path style="opacity:1" fill="#fcfcfc" d="M 274.5,126.5 C 280.979,125.509 287.646,125.176 294.5,125.5C 294.666,132.508 294.5,139.508 294,146.5C 287.27,139.938 280.77,133.271 274.5,126.5 Z"/></g>
<g><path style="opacity:1" fill="#272021" d="M 558.5,408.5 C 576.337,408.017 594.003,409.517 611.5,413C 627.917,416.364 641.251,424.531 651.5,437.5C 660.453,430.049 668.953,422.049 677,413.5C 672.502,424.173 667.669,434.84 662.5,445.5C 676.038,450.191 686.871,458.524 695,470.5C 715.734,502.841 725.067,538.175 723,576.5C 721.126,584.976 717.626,592.643 712.5,599.5C 722.683,605.498 733.017,611.331 743.5,617C 731.948,615.952 720.448,614.452 709,612.5C 707.874,629.747 701.54,644.747 690,657.5C 667.052,682.784 639.219,700.284 606.5,710C 599.167,710.667 591.833,710.667 584.5,710C 582,709.625 579.667,708.792 577.5,707.5C 574.798,718.712 572.631,730.045 571,741.5C 568.135,730.71 565.968,719.71 564.5,708.5C 552.886,710.906 541.219,711.073 529.5,709C 497.446,697.602 470.279,679.102 448,653.5C 441.578,645.068 436.911,635.735 434,625.5C 433.501,621.179 433.334,616.846 433.5,612.5C 421.442,613.962 409.442,615.462 397.5,617C 408.161,611.672 418.494,605.838 428.5,599.5C 418.294,583.64 414.794,566.307 418,547.5C 421.956,519.292 431.622,493.292 447,469.5C 454.994,458.267 465.494,450.6 478.5,446.5C 473.776,435.332 468.943,424.332 464,413.5C 472.047,422.049 480.547,430.049 489.5,437.5C 500.902,423.624 515.569,415.124 533.5,412C 541.948,410.578 550.282,409.412 558.5,408.5 Z"/></g>
<g><path style="opacity:1" fill="#c0252f" d="M 560.5,415.5 C 576.4,415.322 592.066,417.156 607.5,421C 590.554,426.324 573.221,427.991 555.5,426C 548.193,425.341 541.193,423.674 534.5,421C 543.193,418.648 551.86,416.815 560.5,415.5 Z"/></g>
<g><path style="opacity:1" fill="#c7252f" d="M 518.5,427.5 C 524.232,427.283 529.899,427.783 535.5,429C 543.626,431.264 551.626,433.931 559.5,437C 565.442,438.406 571.442,438.739 577.5,438C 588.181,434.657 598.847,431.323 609.5,428C 624.61,425.639 635.776,431.139 643,444.5C 643.667,447.833 643.667,451.167 643,454.5C 627.102,479.782 609.602,503.949 590.5,527C 582.311,530.643 577.478,527.81 576,518.5C 575.667,499.167 575.333,479.833 575,460.5C 572.822,456.935 570.156,456.601 567,459.5C 566.667,478.833 566.333,498.167 566,517.5C 565.164,526.025 560.664,529.525 552.5,528C 533.127,505.297 515.294,481.464 499,456.5C 496.162,447.318 498.662,439.818 506.5,434C 510.434,431.536 514.434,429.369 518.5,427.5 Z"/></g>
<g><path style="opacity:1" fill="#c7252f" d="M 476.5,456.5 C 482.93,455.604 488.764,456.937 494,460.5C 511.648,483.129 528.315,506.462 544,530.5C 544.667,533.5 544.667,536.5 544,539.5C 543.097,540.701 541.931,541.535 540.5,542C 536.167,542.667 531.833,542.667 527.5,542C 511.833,537 496.167,532 480.5,527C 477.833,526.333 475.167,526.333 472.5,527C 470.995,530.883 472.329,533.55 476.5,535C 495.122,540.54 513.455,546.874 531.5,554C 538.76,561.039 537.76,566.706 528.5,571C 502.808,580.342 476.808,588.675 450.5,596C 447.5,596.667 444.5,596.667 441.5,596C 434.623,592.12 430.457,586.287 429,578.5C 428.333,573.833 428.333,569.167 429,564.5C 433.392,554.113 439.392,544.78 447,536.5C 453.714,528.569 456.881,519.402 456.5,509C 454.733,497.707 455.233,486.541 458,475.5C 461.687,466.647 467.854,460.314 476.5,456.5 Z"/></g>
<g><path style="opacity:1" fill="#c7252f" d="M 653.5,456.5 C 663.963,455.649 672.463,459.315 679,467.5C 681.194,470.554 682.861,473.888 684,477.5C 685.266,492.112 685.933,506.779 686,521.5C 687.473,525.779 689.473,529.779 692,533.5C 700.266,542.433 706.933,552.433 712,563.5C 713.76,573.201 712.094,582.201 707,590.5C 700.588,596.736 693.088,598.236 684.5,595C 658.603,587.923 633.27,579.257 608.5,569C 604.583,566.166 603.749,562.666 606,558.5C 608.205,555.96 610.705,553.793 613.5,552C 632.136,545.678 650.636,539.178 669,532.5C 670.164,527.862 668.33,525.862 663.5,526.5C 645.768,531.688 628.101,537.188 610.5,543C 605.331,544.295 600.831,543.128 597,539.5C 596.333,536.833 596.333,534.167 597,531.5C 611.016,509.466 626.016,488.133 642,467.5C 645.07,462.927 648.904,459.261 653.5,456.5 Z"/></g>
<g><path style="opacity:1" fill="#6c2227" d="M 693.5,484.5 C 692.549,485.919 692.216,487.585 692.5,489.5C 691.371,487.372 691.204,485.039 692,482.5C 692.717,483.044 693.217,483.711 693.5,484.5 Z"/></g>
<g><path style="opacity:1" fill="#c2252f" d="M 693.5,484.5 C 703.025,499.225 709.525,515.225 713,532.5C 713.819,538.83 714.152,545.164 714,551.5C 700.97,532.911 693.803,512.244 692.5,489.5C 692.216,487.585 692.549,485.919 693.5,484.5 Z"/></g>
<g><path style="opacity:1" fill="#c2252f" d="M 448.5,482.5 C 448.958,507.975 441.791,531.308 427,552.5C 426.708,540.247 428.375,528.247 432,516.5C 436.726,504.716 442.226,493.383 448.5,482.5 Z"/></g>
<g><path style="opacity:1" fill="#bf252f" d="M 568.5,541.5 C 575.486,541.331 577.153,544.164 573.5,550C 566.416,550.475 564.749,547.642 568.5,541.5 Z"/></g>
<g><path style="opacity:1" fill="#c0252f" d="M 555.5,548.5 C 561.803,548.924 563.469,551.757 560.5,557C 553.237,557.821 551.571,554.988 555.5,548.5 Z"/></g>
<g><path style="opacity:1" fill="#b6252e" d="M 581.5,548.5 C 588.821,549.319 590.154,552.486 585.5,558C 578.075,557.484 576.742,554.318 581.5,548.5 Z"/></g>
<g><path style="opacity:1" fill="#c0252f" d="M 567.5,556.5 C 574.716,555.688 576.716,558.355 573.5,564.5C 566.793,565.772 564.793,563.105 567.5,556.5 Z"/></g>
<g><path style="opacity:1" fill="#be252f" d="M 555.5,563.5 C 562.494,563.415 564.161,566.248 560.5,572C 553.237,572.821 551.571,569.988 555.5,563.5 Z"/></g>
<g><path style="opacity:1" fill="#ba252e" d="M 581.5,563.5 C 587.803,563.924 589.469,566.757 586.5,572C 578.208,572.89 576.542,570.057 581.5,563.5 Z"/></g>
<g><path style="opacity:1" fill="#bf252f" d="M 567.5,571.5 C 575.543,571.003 577.21,573.836 572.5,580C 570.299,580.825 568.466,580.325 567,578.5C 566.297,576.071 566.463,573.738 567.5,571.5 Z"/></g>
<g><path style="opacity:1" fill="#c7252f" d="M 528.5,577.5 C 543.553,575.906 547.386,581.906 540,595.5C 528.549,610.442 517.716,625.775 507.5,641.5C 509.907,646.487 513.073,646.82 517,642.5C 527.711,627.578 538.544,612.745 549.5,598C 552.395,595.801 555.561,594.301 559,593.5C 563.598,594.098 566.265,596.765 567,601.5C 567.667,630.5 567.667,659.5 567,688.5C 564.948,695.219 560.448,699.052 553.5,700C 540.936,702.632 530.436,699.132 522,689.5C 515.256,678.521 507.423,668.355 498.5,659C 487.095,654.232 475.429,650.232 463.5,647C 448.277,640.061 441.777,628.228 444,611.5C 445.061,608.438 446.894,605.938 449.5,604C 475.573,594.032 501.906,585.198 528.5,577.5 Z"/></g>
<g><path style="opacity:1" fill="#c7252f" d="M 601.5,577.5 C 610.077,577.56 618.41,579.06 626.5,582C 647.648,588.605 668.648,595.605 689.5,603C 695.463,606.426 698.13,611.592 697.5,618.5C 696.679,633.63 689.013,643.464 674.5,648C 664.232,650.534 654.232,653.867 644.5,658C 641.37,660.128 638.537,662.628 636,665.5C 629.927,675.807 622.76,685.307 614.5,694C 603.451,702.507 591.784,703.507 579.5,697C 577.044,694.592 575.211,691.759 574,688.5C 573.333,659.5 573.333,630.5 574,601.5C 574.692,596.808 577.358,594.142 582,593.5C 585.488,594.327 588.654,595.827 591.5,598C 602.456,612.745 613.289,627.578 624,642.5C 627.835,646.759 631.001,646.426 633.5,641.5C 623.284,625.775 612.451,610.442 601,595.5C 597.516,590.453 596.849,585.12 599,579.5C 599.995,578.934 600.828,578.267 601.5,577.5 Z"/></g>
<g><path style="opacity:1" fill="#898787" d="M 90.5,640.5 C 92.0481,640.821 92.7148,641.821 92.5,643.5C 91.5987,642.71 90.9321,641.71 90.5,640.5 Z"/></g>
<g><path style="opacity:1" fill="#c3252f" d="M 459.5,652.5 C 483.387,660.78 503.053,674.946 518.5,695C 506.941,691.055 495.941,685.722 485.5,679C 475.94,670.941 467.273,662.108 459.5,652.5 Z"/></g>
<g><path style="opacity:1" fill="#c2252f" d="M 681.5,651.5 C 682.525,651.897 682.692,652.563 682,653.5C 666.432,673.68 646.599,687.513 622.5,695C 638.386,675.268 658.053,660.768 681.5,651.5 Z"/></g>
<g><path style="opacity:1" fill="#929091" d="M 176.5,746.5 C 178.027,746.427 179.027,747.094 179.5,748.5C 177.973,748.573 176.973,747.906 176.5,746.5 Z"/></g>
</svg>
